**kern	**silbe
*ICvox	*
r;	.
*A:	*
*M4/4	*
*clefG2	*
r;	.
=1	=1
1r	.
=2	=2
1r	.
=3	=3
1r	.
=4	=4
1r	.
=5	=5
1r	.
=6	=6
1r	.
=7	=7
1r	.
=8	=8
1r	.
=9	=9
1r	.
=10	=10
1r	.
=11	=11
1r	.
=12	=12
1r	.
=13	=13
16c#	I
16c#	know
16c#	a
16e	cat
8r	.
8c#	named
8B	Way-
8A	-Out
16A	Wi-
[8.A	-llie
=14	=14
4A]	_
4r	.
4r	.
8r	.
16c#	Got
16c#	a
=15	=15
8c#	cool
16c#	lit-
16c#	-tle
8B	chick
8A	named
8A	Roc-
8A	-king
16F#	Mil-
[8.E	-lie
=16	=16
4E]	_
4r	.
4r	.
8r	.
16d	He
16d	can
=17	=17
8d	walk
8d	and
8d	stroll
8d	and
8e	Su-
16e	-sie
[16d	Q
4d]	_
=18	=18
2.r	.
8.r	.
16A	And
=19	=19
8c#	do
8e	that
8B	cra-
16A	-zy
[16A	hand
8A]	_
4A	jive,
[8E	too
=20	=20
4E]	_
4r	.
2r	.
=21	=21
8c#	Ma-
16c#	-ma,
[16e	ma-
16e]	_
16e	-ma,
16c#	look
16B	at
8B	Un-
8A	-cle
[4A	Joe
=22	=22
4A]	_
4r	.
2r	.
=23	=23
16c#	Do-
16c#	-ing
16c#	the
[16B	hand
16B]	_
8A	jive
16A	with
8A	sis-
8A	-ter
4E	Flo
=24	=24
1r	.
=25	=25
16d	Grand-
16d	-ma
8d	gave
8d	ba-
16d	-by
[16e	sis-
16e]	_
16e	-ter
16e	a
[16d	dime
8d]	_
[8c	_
=26	=26
4c]	_
4r	.
4r	.
8.r	.
16A	Said,
=27	=27
8c#	Do
8e	that
8B	hand
8A	jive
8A	one
4A	more
[8E	time
=28	=28
4.E]	_
8r	.
4r	.
4c	Hand
=29	=29
4.A	jive
8r	.
4r	.
4c#	hand
=30	=30
4.c#	jive
8r	.
4r	.
4c#	hand
=31	=31
4.B	jive
8r	.
8e	Do
8d	that
16c#	cra-
16A	-zy
8A	hand
=32	=32
4.A	jive
8r	.
2r	.
=33	=33
1r	.
=34	=34
16c#	Doc-
16c#	-tor
16c#	and
16c#	a
16e	law-
16e	-yer
16c#	and
16B	an
8B	In-
8A	-dian
4A	chief
=35	=35
1r	.
=36	=36
16c#	They
8c#	all
[16B	dig
8B]	_
8A	that
8A	cra-
16A	-zy
[16E	beat
4E_	_
=37	=37
4E]	_
4r	.
2r	.
=38	=38
16d	Way-
8d	-Out
[16d	Wi-
16d]	_
16d	-llie
16d	gave
16d	them
8e	all
16e	a
[16d	treat
4d]	_
=39	=39
2r	.
4r	.
8r	.
16A	When
16A	he
=40	=40
8c#	did
8e	that
8B	hand
8A	jive
16A	with
8.A	his
[4E	feet
=41	=41
4E]	_
4r	.
4r	.
4c	Hand
=42	=42
4.A	jive
8r	.
4r	.
4c#	hand
=43	=43
4.A	jive
8r	.
4r	.
4c#	hand
=44	=44
4.B	jive
8r	.
8e	Do
8d	that
16c#	cra-
16A	-zy
8A	hand
=45	=45
4.A	jive
8r	.
2r	.
=46	=46
1r	.
=47	=47
1r	.
=48	=48
1r	.
=49	=49
1r	.
=50	=50
1r	.
=51	=51
16c#	Wil-
16c#	-lie
16c#	and
[16e	Mil-
16e]	_
16e	-lie
8c#	got
16B	mar-
16A	-ried
[8A	last
16A]	_
[8.A	fall
=52	=52
4A]	_
4r	.
4r	.
16r	.
16A	They
16c#	had
16c#	a
=53	=53
16c#	lit-
16c#	-tle
16c#	Wil-
16c#	-lie
16B	ju-
16A	-nior
8A	and
16A	that
8A	ain't
[16E	all
4E]	_
=54	=54
2r	.
4r	.
8r	.
16d	Well,
16d	the
=55	=55
8d	kids
8d	got
16d	cra-
16d	-zy
16d	and
16d	it's
8e	plain
16e	to
[16d	see
4d]	_
=56	=56
2.r	.
8.r	.
16A	Uh
=57	=57
16c#	Do-
16c#	-ing
16e	the
[16B	hand
8B]	_
8A	jive
8A	on
8A	T.-
4E	-V.
=58	=58
2r	.
4r	.
4c	Hand
=59	=59
4.A	jive
8r	.
4r	.
4c#	hand
=60	=60
4.c#	jive
8r	.
4r	.
4c#	hand
=61	=61
4.B	jive
8r	.
8e	Do
8d	that
16c#	cra-
16A	-zy
8A	hand
=62	=62
4.A	jive
8r	.
2r	.
=63	=63
1r	.
=64	=64
1r	.
=65	=65
1r	.
=66	=66
1r	.
=67	=67
1r	.
=68	=68
1r	.
=69	=69
1r	.
=70	=70
1r	.
=71	=71
1r	.
=72	=72
1r	.
=73	=73
1r	.
=74	=74
1r	.
=75	=75
1r	.
=76	=76
1r	.
=77	=77
1r	.
=78	=78
1r	.
r;	.
r;	.
*-	*-
!!!ENC: Nathaniel Condit-Schultz